X:11
T:Princess Royal (Oddington)
P:A.AB.(CB)x2
M:4/4
K:G
dc | BcBA G2 d2 | BcBA G2 d2 | efed c2 e2 | d2 dc B2 d2 | cBcB A2 G2 | AGFE D2 d2 | B2 AG A2 A2 | G4 G2 ||
d>e | f2 d2 d2 ef | g2 G2 G2 f2 | gagf e2 d2 | cBAG G2 D2 | G2 AB c2 c2 | defd g3 f | g2 d2 e3 e | d2 G2 c4 | d2 cB c2 A2 | G2 AF D2 d2 | B2 AG A2 d2 | G4 G2 ||\
M:2/4
L:1/8
d3 c |
M:2/2
B3 c B2 AB | G4 d3c | B3c B2 AB | G4 d4 | e4 d4 | c3d e2 f2 | d4 c4 || \
M:2/4
L:1/8
B2 d2 | \
M:4/4
c2 B2 A2 G2 | AGFE D2 dc | B2 AG F2 d2 | G4 G4 ||
